X:21
T:Scattery Island
R:slide
D:Sean Ryan: Siuil Uait
D:Four Men and a Dog: Shifting Gravel
Z:id:hn-slide-21
M:6/8
K:D
FGA d2A|FGA dcd|e2A cBA|e2A cBA|
FGA d2A|FGA dcd|e2A cBA|1 f2e d2A:|2 f2e dfg||
|:~a3 faf|~d3 def|~g3 faf|~e3 efg|
~a3 faf|~d3 dcd|e2A cBA|1 f2e dfg:|2 f2e d2A||
